; generated by QIDISlicer 1.1.2 on 2024-04-15 at 11:15:57 UTC


;
;

;
;
; 

; external perimeters extrusion width = 0.42mm
; perimeters extrusion width = 0.45mm
; infill extrusion width = 0.45mm
; solid infill extrusion width = 0.42mm
; top infill extrusion width = 0.42mm
; first layer extrusion width = 0.50mm

; external perimeters extrusion width = 0.42mm
; perimeters extrusion width = 0.45mm
; infill extrusion width = 0.45mm
; solid infill extrusion width = 0.42mm
; top infill extrusion width = 0.42mm
; first layer extrusion width = 0.50mm

;TYPE:Custom
EXCLUDE_OBJECT_DEFINE NAME=Bed_Build_Plate_Alignment_Stops_v1_stl CENTER=137.504,122.713 POLYGON=[[138.919,109.728],[140.584,109.903],[142.208,110.308],[143.760,110.936],[145.210,111.773],[146.530,112.803],[147.693,114.008],[148.677,115.362],[149.463,116.840],[150.144,118.818],[150.471,120.884],[150.500,134.721],[127.100,134.721],[125.500,133.121],[125.500,109.721]]
EXCLUDE_OBJECT_DEFINE NAME=Bed_Build_Plate_Alignment_Stops_v1_stl CENTER=106.504,123.270 POLYGON=[[107.919,110.286],[109.584,110.461],[111.208,110.866],[112.760,111.493],[114.210,112.330],[115.530,113.361],[116.693,114.565],[117.677,115.920],[118.463,117.398],[119.144,119.376],[119.471,121.442],[119.500,135.279],[96.100,135.279],[94.500,133.679],[94.500,110.279]]
M73 P0 R21
PRINT_START BED=100 HOTEND=250 CHAMBER=60
M83
G4 P3000
G0 X89.8016 Y105.023 Z5 F6000
G0 Z0.2 F600
G1 E3 F1800
G1 X174.802 E3.4 F3000
G1 Y107.023 E0.08 F3000
G1 X89.8016 E3.4 F3000
G1 Y190.023 E3.32 F3000
G1 X91.8016 E0.08 F3000
G1 Y108.023 E3.28 F3000
G1 X92.8016 Z0
G1 X95.8016
G1 Z1 F600
G21 ; set units to millimeters
G90 ; use absolute coordinates
M83 ; use relative distances for extrusion
; Filament gcode
M900 K0.0375 T0.03
M107
M106 P2 S0
;LAYER_CHANGE
;Z:0.2
;HEIGHT:0.2
TIMELAPSE_TAKE_FRAME
G1 E-.8 F1800
G1 Z.2 F600
G92 E0
;LOG_Z
G1 X127.066 Y111.287 F30000
G1 Z.2 F600
EXCLUDE_OBJECT_START NAME=Bed_Build_Plate_Alignment_Stops_v1_stl
G1 E.8 F1800
M204 S500
;TYPE:Perimeter
;WIDTH:0.499999
G1 F3000
G1 X138.64 Y111.291 E.41789
G1 X139.242 Y111.314 E.02175
G1 X139.98 Y111.393 E.0268
G1 X140.709 Y111.523 E.02674
G1 X141.426 Y111.706 E.02672
G1 X142.129 Y111.938 E.02673
G1 X142.814 Y112.22 E.02675
G1 X143.477 Y112.55 E.02674
G1 X144.114 Y112.925 E.02669
G1 X144.724 Y113.346 E.02676
G1 X145.302 Y113.808 E.02672
G1 X145.846 Y114.31 E.02673
G1 X146.353 Y114.85 E.02674
G1 X146.82 Y115.424 E.02672
G1 X147.244 Y116.028 E.02664
G1 X147.674 Y116.749 E.03031
G1 X147.96 Y117.32 E.02306
G1 X148.284 Y118.095 E.03033
G1 X148.51 Y118.781 E.02608
G1 X148.646 Y119.317 E.01997
G1 X148.827 Y120.266 E.03488
G1 X148.911 Y121.08 E.02955
G1 X148.934 Y121.786 E.0255
G1 X148.934 Y133.155 E.41049
G1 X127.702 Y133.155 E.7666
G1 X127.066 Y132.519 E.03248
G1 X127.066 Y111.347 E.76444
M204 S10000
G1 X126.609 Y110.83 F30000
M204 S500
G1 F3000
G1 X138.649 Y110.834 E.43472
G1 X139.276 Y110.858 E.02266
G1 X140.045 Y110.94 E.02792
G1 X140.805 Y111.076 E.02788
G1 X141.555 Y111.266 E.02793
G1 X142.288 Y111.509 E.02788
G1 X143.003 Y111.803 E.02791
G1 X143.695 Y112.148 E.02792
G1 X144.36 Y112.54 E.02787
G1 X144.997 Y112.979 E.02793
G1 X145.6 Y113.461 E.02787
G1 X146.168 Y113.985 E.0279
G1 X146.697 Y114.549 E.02792
G1 X147.185 Y115.148 E.0279
G1 X147.628 Y115.779 E.02784
G1 X148.075 Y116.529 E.03152
G1 X148.332 Y117.042 E.02072
G1 X148.747 Y118.04 E.03902
G1 X148.971 Y118.739 E.0265
G1 X149.094 Y119.226 E.01814
G1 X149.281 Y120.215 E.03634
G1 X149.368 Y121.064 E.03081
G1 X149.391 Y121.786 E.02608
G1 X149.391 Y133.612 E.42699
G1 X127.513 Y133.612 E.78993
G1 X126.609 Y132.708 E.04616
G1 X126.609 Y110.89 E.78776
M204 S10000
G1 X126.152 Y110.373 F30000
M73 P1 R21
M204 S500
;TYPE:External perimeter
G1 F3000
G1 X138.601 Y110.375 E.44948
G1 X139.309 Y110.402 E.02558
G1 X140.109 Y110.487 E.02905
G1 X140.902 Y110.629 E.02909
G1 X141.683 Y110.827 E.02909
G1 X142.447 Y111.08 E.02906
G1 X143.192 Y111.387 E.02909
G1 X143.913 Y111.746 E.02908
G1 X144.606 Y112.154 E.02904
G1 X145.27 Y112.611 E.0291
G1 X145.898 Y113.114 E.02905
G1 X146.49 Y113.661 E.0291
G1 X147.041 Y114.247 E.02904
G1 X147.55 Y114.872 E.0291
G1 X148.012 Y115.531 E.02906
G1 X148.476 Y116.309 E.03271
G1 X148.741 Y116.837 E.02133
G1 X149.179 Y117.889 E.04114
G1 X149.388 Y118.526 E.02421
G1 X149.524 Y119.047 E.01944
G1 X149.735 Y120.164 E.04104
G1 X149.824 Y121.048 E.03208
G1 X149.848 Y121.786 E.02666
G1 X149.848 Y134.07 E.44353
G1 X127.324 Y134.07 E.81325
G1 X126.152 Y132.897 E.05987
G1 X126.152 Y110.433 E.81108
M204 S10000
;WIPE_START
G1 F24000
G1 X126.152 Y110.373 E-.0228
G1 X128.092 Y110.373 E-.7372
;WIPE_END
G1 E-.04 F1800
G1 X133.645 Y115.609 Z.6 F30005.999
G1 X143.391 Y124.797 F30000
G1 Z.2 F600
G1 E.8 F1800
M204 S500
;TYPE:Perimeter
G1 F3000
G1 X143.127 Y125.046 E.0131
G1 X139.075 Y127.386 E.16894
G1 X138.622 Y127.528 E.01714
G1 X138.327 Y127.515 E.01066
G1 X137.933 Y127.386 E.01497
G1 X133.881 Y125.046 E.16894
G1 X133.503 Y124.692 E.0187
G1 X133.398 Y124.472 E.0088
G1 X133.309 Y124.057 E.01532
G1 X133.309 Y119.378 E.16894
G1 X133.403 Y118.952 E.01575
G1 X133.51 Y118.732 E.00883
G1 X133.881 Y118.388 E.01827
G1 X137.933 Y116.049 E.16893
G1 X138.386 Y115.906 E.01715
G1 X138.672 Y115.916 E.01033
G1 X139.063 Y116.042 E.01483
G1 X143.127 Y118.388 E.16943
G1 X143.465 Y118.685 E.01625
G1 X143.654 Y119.086 E.01601
G1 X143.695 Y119.478 E.01423
G1 X143.699 Y124.057 E.16533
G1 X143.635 Y124.411 E.01299
G1 X143.468 Y124.725 E.01284
G1 X143.435 Y124.756 E.00163
M204 S10000
G1 X143.061 Y124.479 F30000
M204 S500
G1 F3000
G1 X142.899 Y124.65 E.0085
G1 X138.847 Y126.99 E.16894
G1 X138.544 Y127.078 E.01139
G1 X138.161 Y126.99 E.01419
G1 X134.109 Y124.65 E.16894
G1 X133.853 Y124.39 E.01317
G1 X133.766 Y124.057 E.01243
G1 X133.766 Y119.378 E.16894
G1 X133.878 Y119.003 E.01413
G1 X134.109 Y118.784 E.01149
G1 X138.161 Y116.444 E.16894
G1 X138.513 Y116.353 E.01313
G1 X138.835 Y116.438 E.01202
G1 X142.899 Y118.784 E.16943
G1 X143.131 Y119.014 E.0118
G1 X143.238 Y119.32 E.0117
G1 X143.242 Y124.057 E.17103
G1 X143.168 Y124.366 E.01147
G1 X143.102 Y124.436 E.00347
M204 S10000
G1 X142.736 Y124.198 F30000
M204 S500
;TYPE:External perimeter
G1 F3000
G1 X142.184 Y124.535 E.02335
G1 X138.618 Y126.594 E.14868
G1 X138.465 Y126.621 E.00561
G1 X138.39 Y126.594 E.00288
G1 X134.338 Y124.255 E.16893
G1 X134.238 Y124.138 E.00556
G1 X134.223 Y124.057 E.00297
G1 X134.223 Y119.378 E.16894
G1 X134.28 Y119.227 E.00583
G1 X134.338 Y119.18 E.0027
G1 X138.39 Y116.84 E.16894
G1 X138.567 Y116.819 E.00644
G1 X141.909 Y118.74 E.13918
G1 X142.67 Y119.18 E.03174
G1 X142.773 Y119.306 E.00588
G1 X142.785 Y124.057 E.17154
G1 X142.755 Y124.141 E.00322
M204 S10000
;WIPE_START
G1 F24000
G1 X142.736 Y124.198 E-.02283
G1 X142.184 Y124.535 E-.23838
G1 X141.064 Y125.182 E-.49879
;WIPE_END
G1 E-.04 F1800
G1 X145.259 Y118.806 Z.6 F30005.999
G1 X147.082 Y116.036 F30000
G1 Z.2 F600
G1 E.8 F1800
M204 S500
;TYPE:Solid infill
;WIDTH:0.50589
G1 F6000
G1 X145.552 Y114.505 E.07916
G1 X145.078 Y114.068 E.02358
G1 X144.519 Y113.621 E.02618
G1 X143.93 Y113.215 E.02616
G1 X143.174 Y112.782 E.03186
G1 X147.441 Y117.049 E.22069
G1 X147.649 Y117.463 E.01694
G1 X147.968 Y118.231 E.03041
G1 X141.99 Y112.253 E.30918
G1 X141.33 Y112.035 E.02542
G1 X141.045 Y111.962 E.01076
G1 X148.259 Y119.176 E.37311
G1 X148.435 Y120.007 E.03106
G1 X140.21 Y111.782 E.42539
G1 X139.931 Y111.732 E.01037
G1 X139.454 Y111.681 E.01754
G1 X148.538 Y120.765 E.46982
G1 X148.581 Y121.463 E.02558
G1 X138.757 Y111.638 E.50812
G1 X138.097 Y111.634 E.02414
G1 X148.591 Y122.128 E.54275
G1 X148.591 Y122.783 E.02395
G1 X137.442 Y111.633 E.57665
G1 X136.787 Y111.633 E.02395
G1 X148.591 Y123.437 E.6105
G1 X148.591 Y124.092 E.02395
G1 X144.038 Y119.539 E.23548
G1 X144.039 Y120.194 E.02395
G1 X148.591 Y124.747 E.23545
G1 X148.591 Y125.402 E.02395
G1 X144.039 Y120.849 E.23545
G1 X144.04 Y121.505 E.02399
G1 X148.591 Y126.056 E.23538
G1 X148.591 Y126.711 E.02395
G1 X144.04 Y122.16 E.23538
G1 X144.041 Y122.815 E.02395
G1 X148.591 Y127.366 E.23535
G1 X148.591 Y128.021 E.02395
G1 X144.041 Y123.47 E.23535
G1 X144.037 Y124.12 E.02377
G1 X148.591 Y128.675 E.23556
G1 X148.591 Y129.33 E.02395
G1 X143.91 Y124.648 E.24213
G1 X143.872 Y124.748 E.00391
G1 X143.645 Y125.038 E.01347
G1 X148.591 Y129.985 E.25583
G1 X148.591 Y130.64 E.02395
G1 X143.296 Y125.345 E.27386
G1 X142.881 Y125.584 E.01751
G1 X148.591 Y131.294 E.29532
G1 X148.591 Y131.949 E.02395
G1 X142.466 Y125.824 E.31678
G1 X142.051 Y126.063 E.01751
G1 X148.591 Y132.604 E.33827
G1 X148.591 Y132.813 E.00764
G1 X148.145 Y132.813 E.01631
G1 X141.636 Y126.303 E.33667
G1 X141.221 Y126.543 E.01753
G1 X147.491 Y132.813 E.32428
G1 X146.836 Y132.813 E.02395
G1 X140.806 Y126.782 E.3119
G1 X140.391 Y127.022 E.01753
G1 X146.181 Y132.813 E.29948
G1 X145.527 Y132.813 E.02392
G1 X139.976 Y127.262 E.2871
G1 X139.561 Y127.501 E.01751
G1 X144.872 Y132.813 E.27471
G1 X144.217 Y132.813 E.02395
M73 P2 R21
G1 X139.135 Y127.73 E.26287
G1 X138.763 Y127.849 E.01428
G1 X138.617 Y127.868 E.00538
G1 X143.562 Y132.813 E.25575
G1 X142.908 Y132.813 E.02392
G1 X137.791 Y127.696 E.26465
G1 X136.25 Y126.809 E.06503
G1 X142.459 Y133.018 E.32113
M204 S10000
;WIPE_START
G1 F24000
G1 X141.045 Y131.604 E-.76
;WIPE_END
G1 E-.04 F1800
G1 X141.671 Y123.997 Z.6 F30005.999
G1 X142.191 Y117.692 F30000
G1 Z.2 F600
G1 E.8 F1800
M204 S500
G1 F6000
G1 X136.132 Y111.633 E.31337
G1 X135.477 Y111.633 E.02395
G1 X140.076 Y116.232 E.23786
G1 X139.205 Y115.728 E.0368
G1 X139.035 Y115.656 E.00675
G1 X138.782 Y115.592 E.00954
G1 X134.822 Y111.632 E.20481
G1 X134.167 Y111.632 E.02395
G1 X138.148 Y115.613 E.2059
G1 X138.003 Y115.651 E.00548
G1 X137.679 Y115.799 E.01303
G1 X133.512 Y111.632 E.21552
G1 X132.857 Y111.632 E.02395
G1 X137.264 Y116.039 E.22793
G1 X136.849 Y116.278 E.01751
G1 X132.202 Y111.632 E.24032
G1 X131.548 Y111.631 E.02392
G1 X136.434 Y116.518 E.25273
G1 X136.019 Y116.758 E.01753
G1 X130.893 Y111.631 E.26514
G1 X130.238 Y111.631 E.02395
G1 X135.604 Y116.997 E.27753
G1 X135.189 Y117.237 E.01753
G1 X129.583 Y111.631 E.28994
G1 X128.928 Y111.631 E.02395
G1 X134.774 Y117.477 E.30235
G1 X134.359 Y117.716 E.01751
G1 X128.273 Y111.63 E.31477
G1 X127.618 Y111.63 E.02395
G1 X133.943 Y117.956 E.32715
G1 X133.703 Y118.095 E.01014
G1 X133.546 Y118.213 E.00718
G1 X127.409 Y112.076 E.3174
G1 X127.409 Y112.73 E.02392
G1 X133.224 Y118.545 E.30075
G1 X133.14 Y118.683 E.00591
G1 X133.031 Y119.007 E.0125
G1 X127.409 Y113.385 E.29077
G1 X127.409 Y114.04 E.02395
G1 X132.966 Y119.598 E.28743
G1 X132.966 Y120.252 E.02392
G1 X127.409 Y114.695 E.28741
G1 X127.409 Y115.349 E.02392
G1 X132.966 Y120.907 E.28743
G1 X132.966 Y121.562 E.02395
G1 X127.409 Y116.004 E.28743
G1 X127.409 Y116.659 E.02395
G1 X132.966 Y122.217 E.28743
G1 X132.966 Y122.871 E.02392
G1 X127.409 Y117.314 E.28741
G1 X127.409 Y117.968 E.02392
G1 X133.172 Y123.732 E.29809
M204 S10000
;WIPE_START
G1 F24000
G1 X131.758 Y122.318 E-.76
;WIPE_END
G1 E-.04 F1800
G1 X127.203 Y118.417 Z.514 F30005.999
G1 Z.2 F600
G1 E.8 F1800
M204 S500
G1 F6000
G1 X132.985 Y124.199 E.29904
G1 X133.001 Y124.324 E.00461
G1 X133.131 Y124.736 E.0158
G1 X133.225 Y124.893 E.00669
G1 X133.335 Y125.021 E.00617
G1 X133.663 Y125.315 E.01611
G1 X134.7 Y125.914 E.0438
G1 X141.598 Y132.813 E.35679
G1 X140.943 Y132.813 E.02395
G1 X127.409 Y119.278 E.7
G1 X127.409 Y119.933 E.02395
G1 X140.289 Y132.813 E.66615
G1 X139.634 Y132.813 E.02395
G1 X127.409 Y120.587 E.6323
G1 X127.409 Y121.242 E.02395
G1 X138.979 Y132.813 E.59842
G1 X138.324 Y132.813 E.02395
G1 X127.409 Y121.897 E.56455
G1 X127.409 Y122.552 E.02395
G1 X137.67 Y132.813 E.5307
G1 X137.015 Y132.813 E.02395
G1 X127.409 Y123.206 E.49684
G1 X127.409 Y123.861 E.02395
G1 X136.36 Y132.813 E.46297
G1 X135.705 Y132.813 E.02395
G1 X127.409 Y124.516 E.42909
G1 X127.409 Y125.17 E.02392
G1 X135.051 Y132.813 E.39527
G1 X134.396 Y132.813 E.02395
G1 X127.409 Y125.825 E.36139
G1 X127.409 Y126.48 E.02395
G1 X133.741 Y132.813 E.32751
G1 X133.086 Y132.813 E.02395
G1 X127.409 Y127.135 E.29364
G1 X127.409 Y127.789 E.02392
G1 X132.432 Y132.813 E.25981
G1 X131.777 Y132.813 E.02395
G1 X127.409 Y128.444 E.22594
G1 X127.409 Y129.099 E.02395
G1 X131.122 Y132.813 E.19206
G1 X130.468 Y132.813 E.02392
G1 X127.409 Y129.754 E.15821
G1 X127.409 Y130.408 E.02392
M73 P3 R21
G1 X129.813 Y132.813 E.12436
G1 X129.158 Y132.813 E.02395
G1 X127.409 Y131.063 E.09048
G1 X127.409 Y131.718 E.02395
G1 X128.503 Y132.813 E.05661
G1 X127.849 Y132.813 E.02392
G1 X127.203 Y132.167 E.03341
M204 S10000
;WIPE_START
G1 F24000
G1 X127.849 Y132.813 E-.34716
G1 X128.503 Y132.813 E-.135
G1 X128.197 Y132.507 E-.27784
;WIPE_END
G1 E-.04 F1800
EXCLUDE_OBJECT_END NAME=Bed_Build_Plate_Alignment_Stops_v1_stl
EXCLUDE_OBJECT_START NAME=Bed_Build_Plate_Alignment_Stops_v1_stl
G1 X121.778 Y128.379 Z.6 F30005.999
G1 X96.066 Y111.845 F30000
G1 Z.2 F600
G1 E.8 F1800
M204 S500
;TYPE:Perimeter
;WIDTH:0.499999
G1 F3000
G1 X107.64 Y111.849 E.41789
G1 X108.242 Y111.872 E.02175
G1 X108.98 Y111.95 E.02679
G1 X109.709 Y112.081 E.02674
G1 X110.426 Y112.263 E.02671
G1 X111.129 Y112.496 E.02674
G1 X111.814 Y112.778 E.02675
G1 X112.477 Y113.107 E.02672
G1 X113.114 Y113.483 E.02671
G1 X113.724 Y113.903 E.02674
G1 X114.302 Y114.366 E.02674
G1 X114.846 Y114.868 E.02673
G1 X115.353 Y115.407 E.02672
G1 X115.82 Y115.982 E.02675
G1 X116.244 Y116.586 E.02664
G1 X116.674 Y117.307 E.03031
G1 X116.96 Y117.877 E.02303
G1 X117.284 Y118.653 E.03036
G1 X117.51 Y119.339 E.02608
G1 X117.646 Y119.874 E.01993
G1 X117.827 Y120.824 E.03492
G1 X117.911 Y121.638 E.02955
G1 X117.934 Y122.344 E.0255
G1 X117.934 Y133.713 E.41049
G1 X96.702 Y133.713 E.7666
G1 X96.066 Y133.076 E.0325
G1 X96.066 Y111.905 E.7644
M204 S10000
G1 X95.609 Y111.388 F30000
M204 S500
G1 F3000
G1 X107.649 Y111.392 E.43472
G1 X108.276 Y111.415 E.02265
G1 X109.045 Y111.498 E.02793
G1 X109.805 Y111.634 E.02788
G1 X110.555 Y111.824 E.02793
G1 X111.288 Y112.067 E.02788
G1 X112.003 Y112.361 E.02791
G1 X112.695 Y112.705 E.0279
G1 X113.36 Y113.098 E.02789
G1 X113.997 Y113.536 E.02791
G1 X114.6 Y114.019 E.0279
G1 X115.168 Y114.543 E.0279
G1 X115.697 Y115.106 E.02789
G1 X116.185 Y115.706 E.02792
G1 X116.628 Y116.337 E.02784
G1 X117.075 Y117.087 E.03152
G1 X117.332 Y117.6 E.02072
G1 X117.747 Y118.598 E.03902
G1 X117.971 Y119.297 E.0265
G1 X118.094 Y119.784 E.01814
G1 X118.281 Y120.773 E.03634
G1 X118.368 Y121.622 E.03081
G1 X118.391 Y122.344 E.02608
G1 X118.391 Y134.17 E.42699
G1 X96.513 Y134.17 E.78993
G1 X95.609 Y133.266 E.04616
G1 X95.609 Y111.448 E.78776
M204 S10000
G1 X95.152 Y110.93 F30000
M204 S500
;TYPE:External perimeter
G1 F3000
G1 X107.601 Y110.932 E.44948
G1 X108.309 Y110.959 E.02558
G1 X109.109 Y111.045 E.02905
G1 X109.902 Y111.187 E.02909
G1 X110.683 Y111.385 E.02909
G1 X111.447 Y111.638 E.02906
G1 X112.192 Y111.945 E.02909
G1 X112.913 Y112.303 E.02906
G1 X113.606 Y112.712 E.02905
G1 X114.27 Y113.169 E.0291
G1 X114.898 Y113.672 E.02905
G1 X115.49 Y114.218 E.02908
G1 X116.041 Y114.805 E.02907
G1 X116.55 Y115.43 E.0291
G1 X117.012 Y116.088 E.02903
G1 X117.476 Y116.867 E.03274
G1 X117.741 Y117.395 E.02133
G1 X118.179 Y118.447 E.04114
G1 X118.388 Y119.084 E.02421
G1 X118.524 Y119.605 E.01944
G1 X118.735 Y120.721 E.04101
G1 X118.824 Y121.606 E.03211
G1 X118.848 Y122.344 E.02666
G1 X118.848 Y134.627 E.44349
G1 X96.324 Y134.627 E.81325
G1 X95.152 Y133.455 E.05984
G1 X95.152 Y110.99 E.81112
M204 S10000
;WIPE_START
G1 F24000
G1 X95.152 Y110.93 E-.0228
G1 X97.092 Y110.93 E-.7372
;WIPE_END
G1 E-.04 F1800
G1 X102.645 Y116.166 Z.6 F30005.999
G1 X112.391 Y125.355 F30000
G1 Z.2 F600
G1 E.8 F1800
M204 S500
;TYPE:Perimeter
G1 F3000
G1 X112.127 Y125.604 E.0131
G1 X108.075 Y127.943 E.16893
G1 X107.622 Y128.086 E.01715
G1 X107.327 Y128.073 E.01066
G1 X106.933 Y127.943 E.01498
G1 X102.881 Y125.604 E.16893
G1 X102.503 Y125.25 E.0187
G1 X102.398 Y125.03 E.0088
G1 X102.309 Y124.614 E.01536
G1 X102.309 Y119.935 E.16894
G1 X102.403 Y119.509 E.01575
G1 X102.51 Y119.29 E.0088
G1 X102.881 Y118.946 E.01827
G1 X106.933 Y116.606 E.16894
G1 X107.386 Y116.463 E.01715
G1 X107.672 Y116.474 E.01033
